local/share/icons/dracula-icons-main/scalable/mimetypes/application-vnd.visio.svg

<?xml version="1.0" encoding="UTF-8"?>
<svg xmlns="http://www.w3.org/2000/svg" xmlns:xlink="http://www.w3.org/1999/xlink" width="64" height="64" viewBox="0 0 64 64">
<defs>
<filter id="filter-remove-color" x="0%" y="0%" width="100%" height="100%">
<feColorMatrix color-interpolation-filters="sRGB" values="0 0 0 0 1 0 0 0 0 1 0 0 0 0 1 0 0 0 1 0" />
</filter>
<mask id="mask-0">
<g filter="url(#filter-remove-color)">
<rect x="-6.4" y="-6.4" width="76.8" height="76.8" fill="rgb(0%, 0%, 0%)" fill-opacity="0.15"/>
</g>
</mask>
<linearGradient id="linear-pattern-0" gradientUnits="userSpaceOnUse" x1="49.570999" y1="52.714001" x2="51.714001" y2="54.856998" gradientTransform="matrix(2.3333, 0, 0, 2.3333, -68.667, -72.000999)">
<stop offset="0" stop-color="rgb(0%, 0%, 0%)" stop-opacity="1"/>
<stop offset="1" stop-color="rgb(0%, 0%, 0%)" stop-opacity="0"/>
</linearGradient>
<clipPath id="clip-0">
<rect x="0" y="0" width="64" height="64"/>
</clipPath>
<g id="source-10638" clip-path="url(#clip-0)">
<path fill-rule="evenodd" fill="url(#linear-pattern-0)" d="M 56 46 L 42 60 L 51 60 C 53.769531 60 56 57.769531 56 55 Z M 56 46 "/>
</g>
<mask id="mask-1">
<g filter="url(#filter-remove-color)">
<rect x="-6.4" y="-6.4" width="76.8" height="76.8" fill="rgb(0%, 0%, 0%)" fill-opacity="0.75"/>
</g>
</mask>
<clipPath id="clip-1">
<rect x="0" y="0" width="64" height="64"/>
</clipPath>
<g id="source-10642" clip-path="url(#clip-1)">
<path fill-rule="nonzero" fill="rgb(100%, 100%, 100%)" fill-opacity="1" d="M 22 21 C 21.445312 21 21 21.445312 21 22 L 21 42 C 21 42.554688 21.445312 43 22 43 L 42 43 C 42.554688 43 43 42.554688 43 42 L 43 22 C 43 21.445312 42.554688 21 42 21 Z M 37.5 23.5 L 40.5 26.496094 L 38 28.996094 L 38 37.996094 L 35 37.996094 L 35 39.996094 L 30 39.996094 L 30 37.996094 L 26 37.996094 L 26 28.945312 C 24.835938 28.707031 24.003906 27.6875 24 26.5 C 24 25.121094 25.121094 24 26.5 24 C 27.6875 24 28.710938 24.835938 28.949219 26 L 35 26 Z M 28.941406 27 C 28.738281 27.980469 27.972656 28.746094 26.996094 28.949219 L 26.996094 37 L 29.996094 37 L 29.996094 35 L 34.996094 35 L 34.996094 37 L 36.996094 37 L 36.996094 29 L 34.996094 27 Z M 28.941406 27 "/>
</g>
</defs>
<path fill-rule="nonzero" fill="rgb(23.921569%, 34.509804%, 64.705882%)" fill-opacity="1" d="M 13 4 L 51 4 C 53.761719 4 56 6.238281 56 9 L 56 55 C 56 57.761719 53.761719 60 51 60 L 13 60 C 10.238281 60 8 57.761719 8 55 L 8 9 C 8 6.238281 10.238281 4 13 4 Z M 13 4 "/>
<g mask="url(#mask-0)">
<use xlink:href="#source-10638"/>
</g>
<g mask="url(#mask-1)">
<use xlink:href="#source-10642"/>
</g>
</svg>

<svg width="64" height="64" version="1.1" viewBox="0 0 64 64" xmlns="http://www.w3.org/2000/svg">
 <defs>
  <linearGradient id="a" x1="49.571" x2="51.714" y1="52.714" y2="54.857" gradientTransform="matrix(2.3333,0,0,2.3333,-68.667,-72.001)" gradientUnits="userSpaceOnUse">
   <stop offset="0"/>
   <stop stop-opacity="0" offset="1"/>
  </linearGradient>
 </defs>
 <g transform="scale(1)">
  <rect x="8" y="4" width="48" height="56" ry="5" fill="#3d58a5" style="paint-order:stroke fill markers"/>
  <path d="m56 46-14 14h9c2.77 0 5-2.23 5-5z" fill="url(#a)" fill-rule="evenodd" opacity=".15" stroke-width="8.8191" style="paint-order:stroke fill markers"/>
 </g>
 <path d="m22 21c-0.554 0-1 0.446-1 1v20c0 0.554 0.446 1 1 1h20c0.554 0 1-0.446 1-1v-20c0-0.554-0.446-1-1-1h-20zm15.5 2.5 3 2.9961-2.5 2.5v9h-3v2h-5v-2h-4v-9.0508c-1.1624-0.23728-1.998-1.2589-2-2.4453 0-1.3807 1.1193-2.5 2.5-2.5 1.1879 1.38e-4 2.2116 0.83613 2.4492 2h6.0508l2.5-2.5zm-8.5605 3.5c-0.1999 0.9805-0.96522 1.7474-1.9453 1.9492v8.0508h3v-2h5v2h2v-8l-2-2h-6.0488-0.005859z" fill="#fff" opacity=".75"/>
</svg>
